X: 15824
T: Gordon Quigley's
R: jig
M: 6/8
K: Fmajor
|:fef cfa|g^fg dgb|afa geg|fcA FAc|
fef cfa|g^fg dgb|afa geg|f3 f2g:|
|:afc FAc|fdB FBd|gec Gce|gfa geg|
afc FAc|fdB FBd|gec bge|f3 f2g:|

